shapez/shapest/res/ui/main_menu/changelog.svg

<?xml version="1.0"?>
<svg xmlns="http://www.w3.org/2000/svg" id="Capa_1" enable-background="new 0 0 512 512" height="512px" viewBox="0 0 512 512" width="512px" class=""><g><path d="m106 512h300c24.814 0 45-20.186 45-45v-317h-105c-24.814 0-45-20.186-45-45v-105h-195c-24.814 0-45 20.186-45 45v422c0 24.814 20.186 45 45 45zm60-301h180c8.291 0 15 6.709 15 15s-6.709 15-15 15h-180c-8.291 0-15-6.709-15-15s6.709-15 15-15zm0 60h180c8.291 0 15 6.709 15 15s-6.709 15-15 15h-180c-8.291 0-15-6.709-15-15s6.709-15 15-15zm0 60h180c8.291 0 15 6.709 15 15s-6.709 15-15 15h-180c-8.291 0-15-6.709-15-15s6.709-15 15-15zm0 60h120c8.291 0 15 6.709 15 15s-6.709 15-15 15h-120c-8.291 0-15-6.709-15-15s6.709-15 15-15z" data-original="#000000" class="active-path" data-old_color="#000000" fill="#00AF80"/><path d="m346 120h96.211l-111.211-111.211v96.211c0 8.276 6.724 15 15 15z" data-original="#000000" class="active-path" data-old_color="#000000" fill="#00AF80"/></g> </svg>

<svg xmlns="http://www.w3.org/2000/svg" height="512" width="512"><path d="M106 512h300c24.814 0 45-20.186 45-45V150H346c-24.814 0-45-20.186-45-45V0H106C81.186 0 61 20.186 61 45v422c0 24.814 20.186 45 45 45zm60-301h180c8.291 0 15 6.709 15 15s-6.709 15-15 15H166c-8.291 0-15-6.709-15-15s6.709-15 15-15zm0 60h180c8.291 0 15 6.709 15 15s-6.709 15-15 15H166c-8.291 0-15-6.709-15-15s6.709-15 15-15zm0 60h180c8.291 0 15 6.709 15 15s-6.709 15-15 15H166c-8.291 0-15-6.709-15-15s6.709-15 15-15zm0 60h120c8.291 0 15 6.709 15 15s-6.709 15-15 15H166c-8.291 0-15-6.709-15-15s6.709-15 15-15z" data-original="#000000" class="active-path" data-old_color="#000000" fill="#00AF80"/><path d="M346 120h96.211L331 8.789V105c0 8.276 6.724 15 15 15z" data-original="#000000" class="active-path" data-old_color="#000000" fill="#00AF80"/></svg>
